X: 38407
T: Star Of Munster, The
R: reel
M: 4/4
K: Gminor
d3 c||BAFD GABG|EFGE CDEC|D=EF^F GABc|dgg=e fdcA|
BGE=B, C=E{/A} G^F|GBAG FEDF|DG{/A} G^F GABc|d=efd AG{/A} G{/F}G||
Bc{/d} cB GABG|EG,CE G,CEC|[B,D]2 G{/A}G GABc|dg{/a} g=e fdcA|
BF{/G} F{/E}F AG{/A} G{/F}G|EF{/G} FE DECE|[B,D]2{/d} DD G{/A}G Bc|d=efd AG{/A} GA||
dg{/a} g{/f}g gd (3ddd|gdad gd{/e} d=e|f2{/g} f=e fc{/d} ce|fgag fdc=e|
g2 ^fa gd (3ddd|gdad gd{/e} d=e|f=efa g{/a}g{/f} ga|(3=bag ag fdcA||
dg{/a} g^f gd{/e} d{/c}d|bdad gd{/e} d=e|fcAF D=EFA|c=efc Afce|
dg{/a} g^f gd{/e} d{/c}d|gdad gdd=e|f{/g}f{/e} f{/g}f g{/a}g{/f} g{/a}g|a{/b}a{/g} a{/b}g fdcA||

